svg/charges/warhammer/administratum-symbol.svg

<?xml version="1.0" encoding="utf-8"?>
<!-- Generator: Adobe Illustrator 22.1.0, SVG Export Plug-In . SVG Version: 6.00 Build 0)  -->
<svg version="1.1" id="Layer_4" xmlns="http://www.w3.org/2000/svg"    xmlns:dc="http://purl.org/dc/elements/1.1/"
   xmlns:cc="http://creativecommons.org/ns#"
   xmlns:rdf="http://www.w3.org/1999/02/22-rdf-syntax-ns#" xmlns:xlink="http://www.w3.org/1999/xlink" x="0px" y="0px"
	 viewBox="0 0 1000 1000" style="enable-background:new 0 0 1000 1000;" xml:space="preserve"><metadata
   id="metadata97"><rdf:RDF><cc:Work
       rdf:about=""><dc:format>image/svg+xml</dc:format><dc:type
         rdf:resource="http://purl.org/dc/dcmitype/StillImage" /><dc:title></dc:title><dc:creator><cc:Agent><dc:title>http://bakadesign.dk/warhammer-40-000-icons/</dc:title></cc:Agent></dc:creator></cc:Work></rdf:RDF></metadata>
<g style="fill:#ff0000">
<g>
	<path d="M613.5,81.7C645,36.1,704,40.5,707.4,40.8c0-13.7,0-27.2,0-40.8H495.8h-0.1H284c0,13.7,0,27.2,0,40.8
		c3.4-0.4,62.4-4.8,93.9,40.8c15.5,22.4,17,46.3,17,57.2c0,0,0,13.3,0,36.3c-66.4,35.8-111.6,106-111.6,186.7
		c0,80.9,45.3,151.2,111.9,186.9c0,139.3,0,269.5-0.3,307.7c0.5,7.7,1.7,39.6-20.4,66.5c-21.3,26-56.1,37.6-90.5,30.3v46.7h211.6
		h0.1h211.6v-46.7c-34.4,7.2-69.3-4.3-90.5-30.3c-22.1-27-20.8-58.8-20.4-66.5c-0.8-91.8-1.5-183.6-2.3-275.4l0.2-31.7
		c67.2-35.6,113-106.2,113-187.5c0-80.5-44.9-150.6-111.1-186.5l0.2-36.5C596.5,128,598,104.1,613.5,81.7z M674.2,361.9
		c0,98.7-80.1,178.8-178.8,178.8s-178.8-80.1-178.8-178.8s80.1-178.8,178.8-178.8S674.2,263.1,674.2,361.9z"/>
	<path d="M483.6,201.3v-11.8l-58.9,51.4l10.7,17.1l27.8-22.5l110.3,83.5L535,374.7l-103.9-78.2l-57.8,49.3L384,457.2l87.8,62.1
		l70.2-117.6c11.9,8.5,23.8,17,35.8,25.5c-1,3.2-2.1,6.4-3.2,9.6c-7.2,20.7-15.6,39.6-24.6,56.7l8.6,6.4l70.7-126.3l-11.8-11.8
		l-34.3,51.4l-33.1-25.1l56.6-94.9L483.6,201.3z M474,478.6l-42.8-31l-6.4-88.9l27.8-22.5l74.9,56.7
		C527.5,392.9,474,475.4,474,478.6z"/>
</g>
</g></svg>

<?xml version="1.0" encoding="UTF-8" standalone="no"?>
<!-- Generator: Adobe Illustrator 22.1.0, SVG Export Plug-In . SVG Version: 6.00 Build 0)  -->

<svg
   xmlns:dc="http://purl.org/dc/elements/1.1/"
   xmlns:cc="http://creativecommons.org/ns#"
   xmlns:rdf="http://www.w3.org/1999/02/22-rdf-syntax-ns#"
   xmlns:svg="http://www.w3.org/2000/svg"
   xmlns="http://www.w3.org/2000/svg"
   xmlns:sodipodi="http://sodipodi.sourceforge.net/DTD/sodipodi-0.dtd"
   xmlns:inkscape="http://www.inkscape.org/namespaces/inkscape"
   version="1.1"
   id="Layer_4"
   x="0px"
   y="0px"
   viewBox="0 0 424.10001 999.90002"
   xml:space="preserve"
   sodipodi:docname="administratum-symbol.svg"
   width="424.10001"
   height="999.90002"
   inkscape:version="0.92.3 (2405546, 2018-03-11)"><defs
   id="defs14" /><sodipodi:namedview
   pagecolor="#ffffff"
   bordercolor="#666666"
   borderopacity="1"
   objecttolerance="10"
   gridtolerance="10"
   guidetolerance="10"
   inkscape:pageopacity="0"
   inkscape:pageshadow="2"
   inkscape:window-width="451"
   inkscape:window-height="434"
   id="namedview12"
   showgrid="false"
   inkscape:zoom="0.236"
   inkscape:cx="216.7"
   inkscape:cy="499.9"
   inkscape:window-x="0"
   inkscape:window-y="0"
   inkscape:window-maximized="0"
   inkscape:current-layer="Layer_4" /><metadata
   id="metadata97"><rdf:RDF><cc:Work
       rdf:about=""><dc:format>image/svg+xml</dc:format><dc:type
         rdf:resource="http://purl.org/dc/dcmitype/StillImage" /><dc:title /><dc:creator><cc:Agent><dc:title>http://bakadesign.dk/warhammer-40-000-icons/</dc:title></cc:Agent></dc:creator></cc:Work></rdf:RDF></metadata>
<g
   style="fill:#ff0000"
   id="g9"
   transform="translate(-283.3)">
<g
   id="g7">
	<path
   d="M 613.5,81.7 C 645,36.1 704,40.5 707.4,40.8 c 0,-13.7 0,-27.2 0,-40.8 H 495.8 495.7 284 c 0,13.7 0,27.2 0,40.8 3.4,-0.4 62.4,-4.8 93.9,40.8 15.5,22.4 17,46.3 17,57.2 0,0 0,13.3 0,36.3 -66.4,35.8 -111.6,106 -111.6,186.7 0,80.9 45.3,151.2 111.9,186.9 0,139.3 0,269.5 -0.3,307.7 0.5,7.7 1.7,39.6 -20.4,66.5 -21.3,26 -56.1,37.6 -90.5,30.3 v 46.7 h 211.6 0.1 211.6 v -46.7 c -34.4,7.2 -69.3,-4.3 -90.5,-30.3 -22.1,-27 -20.8,-58.8 -20.4,-66.5 -0.8,-91.8 -1.5,-183.6 -2.3,-275.4 l 0.2,-31.7 c 67.2,-35.6 113,-106.2 113,-187.5 0,-80.5 -44.9,-150.6 -111.1,-186.5 l 0.2,-36.5 c 0.1,-10.8 1.6,-34.7 17.1,-57.1 z m 60.7,280.2 c 0,98.7 -80.1,178.8 -178.8,178.8 -98.7,0 -178.8,-80.1 -178.8,-178.8 0,-98.7 80.1,-178.8 178.8,-178.8 98.7,0 178.8,80 178.8,178.8 z"
   id="path3"
   inkscape:connector-curvature="0" />
	<path
   d="M 483.6,201.3 V 189.5 L 424.7,240.9 435.4,258 463.2,235.5 573.5,319 535,374.7 431.1,296.5 373.3,345.8 384,457.2 471.8,519.3 542,401.7 c 11.9,8.5 23.8,17 35.8,25.5 -1,3.2 -2.1,6.4 -3.2,9.6 -7.2,20.7 -15.6,39.6 -24.6,56.7 l 8.6,6.4 70.7,-126.3 -11.8,-11.8 -34.3,51.4 -33.1,-25.1 56.6,-94.9 z m -9.6,277.3 -42.8,-31 -6.4,-88.9 27.8,-22.5 74.9,56.7 c 0,0 -53.5,82.5 -53.5,85.7 z"
   id="path5"
   inkscape:connector-curvature="0" />
</g>
</g></svg>
